X:1
T:Étude Op. 10 No. 6 in E♭ minor
T:Étude Op. 10 No. 6 in E♭ minor
T:"Lament"
T:Frédéric Chopin
C:Frédéric Chopin
%%score { ( 1 4 ) | ( 2 3 5 ) }
L:1/8
Q:1/4=35
M:6/8
K:Gb
V:1 treble nm="鋼琴" snm="Pno."
V:4 treble 
V:2 bass 
V:3 bass 
V:5 bass 
V:1
!p!"^Andante" (G |[Q:1/4=45] G3-!<(! G2 F/E/-!<)![Q:1/4=56] |!mf!!>(! B3!>)!!p! A3) | %3
!mf! (c3-!p! c2 B/F/ | B6) |!f! (e3- ed/c/A/E/ | !>!_G2- G/F/ E3) | (!>![C_F]3 [=CE]3 | %8
{/E} [B,=D]3)!mf!"_cresc." ([_CE][=C=E]!f!!>(!F)!>)! |!p! (G3-!<(! G2 F/E/-!<)! | %10
!mf!!>(! B3!>)!!p! A3) |!mf! (c3-!p! c2 B/F/ | B6) |!f! (e3- ed/c/A/E/ | !>!_G2- G/F/ E3) | %15
 (!>![C_F]3 =D2- D/E/ | [G,E]3) z2 z |!<(! ([EF]3 [=DF]2 [_D=G]!<)! | %18
!f!!>(! [_A,=C=G_A]3!>)! [A,=DFA]3) |!p!!<(! ([F=G]3 [=EG]2!<)!!f! [_E=A] | %20
!>(! [_B,=D=A_B]3!>)!!mp!"_cresc." (([B,=E-=GB]2 [^A,E^A]))) ||[K:E] (B3 =A2 G | [EG]3 [EF]2) z | %23
 ([EA]3 [DG]2 [DF] |!p! [DF]2!<(! [EG]!<)! [EG]3) | (!>![FG]3!p!!<(! [EG]2!<)!!mf! [EG] | %26
 [Gc]3 [G^B]2) z | ([FG]3 [EG]2 [EG] |!mf! [^Be]3!mp! [Bd]3) ||[K:Gb]!p! ([GA]3 [A_c]2 [Ac] | %30
!mp! [Ac]2 [AB])"_stretto e cresc." ([B_d]2 [Bd] |!mf! [Bd]2 [B=c]) [c_e]2 [ce] | %32
!f! [=c_g]3!mp! [cf]3 |!p! [_AB]3 [AB]2 [=GB] | [=GB]3 [_G=A]3 | [G=A]3 !>![F_A]2 [FA] | %36
 [_FA]3 [=F=G]3 | ([=E=G]3 [EG]2 [EG] | %38
"^poco riten."[Q:1/4=52] !>![^D=G]3[Q:1/4=48][Q:1/4=44] [D^F]2)[Q:1/4=40] z | %39
[Q:1/4=36]"^smorz." (!>![=D_G]3[Q:1/4=32] [D=F]2 [_DF] | %40
[Q:1/4=28] !>![=CF]3!pp![Q:1/4=32]!<(! [=DF]3)[Q:1/4=36][Q:1/4=40][Q:1/4=44][Q:1/4=48][Q:1/4=50]!<)! | %41
[Q:1/4=52]"^a tempo"!p! (G3-!<(! G2 F/E/-!<)! |!mf!!>(! B3!>)!!p! A3) | (!>!c3- c2 B/F/ | B6) | %45
!f! (e3- ed/c/A/E/ | !>!_G2- G/F/ E3) | ([C_F]3!<(! =D2- D/>E/!<)! | %48
!f! [C_F]3!mp!!<(! =D2- D/>E/!<)! |!mf! [C_F]3)"_sosten."!<(! ([^C=E^c][E^G][E=A])!<)! | %50
!f!!>(! (_A/_G/!>)!!p! _F2!mf!!>(! E2!>)! [B,=D] | %51
[Q:1/4=53]!p!"^smorz. e rallent." E6-)[Q:1/4=50][Q:1/4=47][Q:1/4=44] | %52
[Q:1/4=41] E6-[Q:1/4=38][Q:1/4=35][Q:1/4=32] |!pp![Q:1/4=29] !fermata!E6 |] %54
V:2
 z |"_sempre legatissimo" (B,/C/=A,/C/B,/G,/ B,/C/A,/C/B,/)[I:staff -1]E/ | %2
[I:staff +1] (C/D/B,/D/C/_A,/ C/D/B,/D/C/A,/-) | %3
!>(! (A,/B,/=G,/B,/A,/!>)!F,/ A,/B,/G,/B,/A,/)[I:staff -1]F/ | %4
[I:staff +1] =G,/A,/^F,/A,/G,/=E,/!<(! G,/A,/F,/A,/G,/[I:staff -1]E/!<)! | %5
[I:staff +1] G,/!>(!A,/^F,/A,/=G,/!>)!!mp!_E,/ A,/B,/G,/B,/A,/[I:staff -1]E/ | %6
[I:staff +1] A,/B,/=G,/B,/A,/F,/ _G,/A,/F,/A,/G,/E,/ | %7
[I:staff -1] A,/B,/=G,/B,/A,/[I:staff +1]_F,/ _G,/_A,/=F,/A,/G,/[I:staff -1]C/ | %8
"_sempre legato"[I:staff +1] F,/!<(!G,/=E,/G,/F,/A,/!<)! G,/__B,/ =G,/_B,/ A,/_C/ | %9
 (B,/C/=A,/C/B,/G,/ B,/C/A,/C/B,/)[I:staff -1]E/ |[I:staff +1] (C/D/B,/D/C/_A,/ C/D/B,/D/C/A,/-) | %11
!>(! (A,/B,/=G,/B,/A,/!>)!F,/ A,/B,/G,/B,/A,/)[I:staff -1]F/ | %12
[I:staff +1] =G,/A,/^F,/A,/G,/=E,/!<(! G,/A,/F,/A,/G,/[I:staff -1]E/!<)! | %13
[I:staff +1] G,/!>(!A,/^F,/A,/=G,/!>)!!mp!_E,/ A,/B,/G,/B,/A,/[I:staff -1]E/ | %14
[I:staff +1] A,/B,/=G,/B,/A,/F,/ _G,/A,/F,/A,/G,/E,/ | %15
[I:staff -1] A,/B,/=G,/B,/A,/[I:staff +1]_F,/ =F,/_G,/=E,/G,/F,/B,,/- | %16
"_pesante" (B,,/C,/=A,,/C,/B,,/G,,/ E,,/F,,/=D,,/F,,/E,,/=C,,/) | [B,,,B,,]3 B,,3 | %18
 F,/=G,/=E,/G,/F,/=C,/ =B,,/C,/^A,,/C,/B,,/=B,,,/ | =C,,3 =C,3 | %20
 G,/=A,/^F,/A,/=G,/=D,/ ^C,/D,/^B,,/D,/C,/(^^F,,/ ||[K:E]"_legato" G,,3) ([C,,C,]3 | %22
 [F,,,F,,]3 [G,,,G,,]2 [A,,,A,,] | [B,,,B,,]3 B,,2 B,, | [E,,B,,]6) | ([^B,,,^B,,]3 [C,,C,]3 | %26
 G,,6) | ([^B,,,^B,,]3 [C,,C,]3 | [G,,,G,,]6) ||[K:Gb] ([=C,,=C,]3 [E,,E,]3 | %30
 [=D,,=D,]3) ([F,,F,]3 | [=E,,=E,]3) ([=G,,=G,]2 [_G,,_G,]) | ([_E,,_E,]6 | [=D,,=D,]3 [_D,,_D,]3 | %34
 [=C,,=C,]6 | [_C,,_C,]6 | [B,,,B,,]6) | [=A,,,=A,,]6- | [A,,,A,,]6 | [__B,,,__B,,]6- | %40
 [B,,,B,,]6 | B,/C/=A,/C/B,/G,/ B,/C/A,/C/B,/[I:staff -1]E/ | %42
[I:staff +1] C/D/B,/D/C/_A,/ C/D/B,/D/C/A,/- | %43
 (A,/B,/=G,/B,/A,/F,/ A,/B,/G,/B,/A,/)[I:staff -1]F/ | %44
[I:staff +1] =G,/A,/^F,/A,/G,/=E,/!<(! G,/A,/F,/A,/G,/[I:staff -1]E/!<)! | %45
[I:staff +1] G,/!>(!A,/^F,/A,/=G,/!>)!!mp!_E,/ A,/B,/G,/B,/A,/[I:staff -1]E/ | %46
[I:staff +1] A,/B,/=G,/B,/A,/F,/ _G,/A,/F,/A,/G,/E,/ | %47
[I:staff -1] A,/B,/=G,/B,/A,/"_m.g."[I:staff +1]_F,/ =F,/_G,/=E,/G,/F,/B,,/ | %48
[I:staff -1] A,/B,/=G,/B,/A,/"_m.g."[I:staff +1]_F,/ =F,/_G,/=E,/G,/F,/B,,/ | %49
[I:staff -1] A,/B,/=G,/B,/A,/[I:staff +1]_F,/ =A,/=E,/ =B,/E,/ ^C/E,/- | %50
 _F,/F,/!<(!E,/F,/_G,/A,/!<)! B,,3- | %51
 B,,/(_C,/B,,/=D,/[I:staff -1]E,/[I:staff +1]F,/)[I:staff -1] G,/[I:staff +1](C,/B,,/D,/[I:staff -1]E,/[I:staff +1]F,/) | %52
[I:staff -1] G,/[I:staff +1](C,/B,,/=D,/[I:staff -1]E,/[I:staff +1]F,/)[I:staff -1] G,/[I:staff +1]C,/B,,/D,/[I:staff -1]E,/[I:staff +1]F,/ | %53
 !fermata!B,,6 |] %54
V:3
 x | E,6 | F,6 | =D,6 | _D,6 | _C,6 | B,,3 C,3 | A,,3 =A,,3 | B,,6 | E,6 | F,6 | =D,6 | _D,6 | %13
 _C,6 | B,,3 C,3 | A,,3 B,,3 | E,,2 x4 | x6 | F,,3 x3 | x6 | =G,,3 x3 ||[K:E] x6 | x6 | x6 | x6 | %25
 x6 | x6 | x6 | x6 ||[K:Gb] x6 | x6 | x6 | x6 | x6 | x6 | x6 | x6 | x6 | x6 | x6 | x6 | E,6 | F,6 | %43
 =D,6 | _D,6 | _C,6 | B,,3 C,3 | A,,3 B,,3 | A,,3 B,,3 | A,,3 =A,,=B,,^C, | _A,,3 x3 | E,,6- | %52
 E,,6- | E,,6 |] %54
V:4
 x | x6 | E4- E>F- | F6 | _F4- F>_E- | E6 | =D3 E3 | x6 | x5 _D/=D/ | E3 x3 | E4- E>F- | F6 | %12
 _F4- F>_E- | E6 | =D3 E3 | x3 A,3 | x6 | %17
 B,/C/=A,/C/B,/F,/ B,/"_cresc."C/A,/C/B,/[I:staff +1]F,/- | x6 | %19
[I:staff -1] =D/_E/^C/E/D/=G,/ =C/=D/=B,/D/C/[I:staff +1]=G,/- | x6 || %21
[K:E][I:staff -1] [B,E]/F/D/F/E/B,/ E/F/D/F/E/B,/ | C/D/^B,/D/C/A,/ C/D/B,/D/C/F,/ | %23
 C/D/^B,/D/C/F,/ =B,/C/A,/C/B,/F,/ | B,/C/A,/C/B,/G,/ B,/!mf!C/A,/C/B,/G,/ | %25
 D/E/^^C/!>(!E/D/G,/!>)! ^C/D/^B,/D/C/G,/ | %26
 D/!>(!E/^^C/E/D/!>)!"_m.g."!p![I:staff +1]G,/[I:staff -1] D/E/C/E/D/G,/ | %27
 D/E/^^C/E/D/G,/ ^C/!<(!D/^B,/D/C/G,/!<)! | G/!>(!A/^^F/A/G/D/!>)! G/A/F/A/G/D/ || %29
[K:Gb] E/"_cresc. poco"_F/=D/F/E/A,/ =F/G/=E/G/F/_C/ | F/G/=E/G/F/B,/ =G/A/^F/A/G/_D/ | %31
 =G/A/^F/A/G/=C/ =A/!<(!B/^G/B/A/_E/!<)! | =A/!>(!B/^G/B/A/_G/!>)! A/B/^G/B/A/_G/ | %33
 =F/_G/=E/G/F/B,/ _F/G/_E/G/=E/B,/ | =E/F/=D/F/E/B,/ _E/F/D/F/E/=A,/ | %35
 E/F/=D/F/E/=A,/ _D/E/^C/E/D/_A,/ | _D/E/=C/E/D/A,/ D/E/C/E/D/=G,/ | %37
 ^C/^D/^B,/D/C/=G,/ =C/=D/=B,/D/C/G,/ | =B,/=C/^A,/C/B,/^F,/ B,/C/A,/C/B,/F,/ | %39
 _B,/_C/=A,/C/B,/=F,/ B,/C/A,/C/B,/F,/ | =A,/B,/^G,/B,/A,/F,/ B,/_C/=A,/C/B,/F,/ | x6 | E4- E>F- | %43
 F6 | _F4- F>_E- | E6 | =D3 E3 | x3 B,3 | x3 B,3 | x6 | %50
 _C3- C/"^dim."B,/!mp!=A,/B,/-[I:staff +1]=F,/[I:staff -1]G,/- | G,2 x4 | x6 | !>!=G,6 |] %54
V:5
 x | x6 | x6 | x6 | x5 =G,- | x5 A,- | x6 | x5 G, | x6 | x6 | x6 | x6 | x5 =G,- | x5 A,- | x6 | %15
 x6 | x6 | x6 | x6 | x6 | x6 ||[K:E] x6 | x6 | x6 | x6 | x6 | x6 | x6 | x6 ||[K:Gb] x6 | x6 | x6 | %32
 x6 | x6 | x6 | x6 | x6 | x6 | x6 | x6 | x6 | x6 | x6 | x6 | x5 =G,- | x5 A,- | x6 | x6 | x6 | x6 | %50
 x6 | x6 | x4 B,,2- | x6 |] %54

